X:1
T:Vision, 88.88.88
T:Vision, 88.88.88
T:William Howard Doane, 1873
T:Public Domain Courtesy of the Cyber Hymnal™
C:William Howard Doane, 1873
Z:Public Domain
Z:Courtesy of the Cyber Hymnal™
%%score ( 1 2 ) ( 3 4 )
L:1/8
Q:1/4=170
M:4/2
K:Eb
V:1 treble 
V:2 treble 
V:3 bass 
V:4 bass 
V:1
 [EG]4 [DF]2 E2 [EB]6 [EB]2 | [Ec]4 [Ee]4 [EB]8 | [EG]4 [DF]2 E2 [EB]6 [Ec]2 | [EB]4 [EG]4 [DF]8 | %4
 [EG]4 [DF]2 E2 [GB]6 [GB]2 | [Ac]4 (d2 e2) [Ge]8 | [Ee]4 [Ed]2 [Ec]2 (B2 G2) (E2 [FA]2) | %7
 [EG]4 [DF]4 E8 | [DB]4 [EB]2 [FB]2 B8 | [Ac]4 [Ad]2 [Ae]2 [Ge]8 | %10
 [Ee]4 [Ed]2 [Ec]2 (B2 G2) (E2 [FA]2) | [EG]4 [DF]4 E8 |] %12
V:2
 x6 E2 x8 | x16 | x6 E2 x8 | x16 | x6 E2 x8 | x4 E4 x8 | x8 E4 E2 x2 | x8 E8 | x8 (E4 G4) | x16 | %10
 x8 E4 E2 x2 | x8 E8 |] %12
V:3
 [E,B,]4 [E,A,]2 [E,G,]2 [E,G,]6 [E,G,]2 | [A,,A,]4 [C,A,]4 [E,G,]8 | %2
 [E,B,]4 [E,A,]2 [E,G,]2 [E,G,]6 [E,A,]2 | [E,G,]4 [E,B,]4 [B,,B,]8 | %4
 [E,B,]4 [E,A,]2 [E,G,]2 [E,E]6 [E,E]2 | [A,E]4 (B,2 C2) [E,B,]8 | %6
 [A,,C]4 [A,,B,]2 [A,,A,]2 (G,2 B,2) ([C,G,]2 [A,,C]2) | [B,,B,]4 [B,,A,]4 [E,G,]8 | %8
 [B,,F,]4 [B,,G,]2 [B,,A,]2 (G,2 B,2 E4) | [A,E]4 [A,B,]2 [A,C]2 [E,B,]8 | %10
 [A,,C]4 [A,,B,]2 [A,,A,]2 (G,2 B,2) ([C,G,]2 [A,,C]2) | [B,,B,]4 [B,,A,]4 [E,G,]8 |] %12
V:4
 x16 | x16 | x16 | x16 | x16 | x4 A,4 x8 | x8 B,,4 x4 | x16 | x8 E,8 | x16 | x8 B,,4 x4 | x16 |] %12

